files/img/company1.svg

<svg width="130" height="130" fill="none" xmlns="http://www.w3.org/2000/svg">
  <path d="M60.3527 17.1609c1.4724-3.3034 2.209-4.9551 3.2342-5.4637a3.1782 3.1782 0 0 1 2.8265 0c1.0253.5086 1.7618 2.1603 3.2342 5.4637l11.7284 26.312c.4357.9765.6532 1.4648.9903 1.8387a3.1777 3.1777 0 0 0 1.0685.7767c.4598.2048.9916.2609 2.055.3731l28.6482 3.0237c3.597.3796 5.395.5694 6.196 1.3872a3.1814 3.1814 0 0 1 .873 2.6887c-.166 1.1322-1.51 2.3425-4.196 4.7639L95.6103 77.6105c-.7938.7155-1.1913 1.0736-1.4426 1.5093a3.1795 3.1795 0 0 0-.4083 1.2568c-.0528.5005.0579 1.0233.2799 2.0696l5.9777 28.1808c.75 3.538 1.125 5.307.595 6.32a3.1787 3.1787 0 0 1-2.2872 1.662c-1.1283.191-2.6948-.712-5.8279-2.519l-24.9545-14.393c-.9261-.534-1.3891-.801-1.8814-.906a3.1987 3.1987 0 0 0-1.3216 0c-.4923.105-.9554.372-1.8814.906L37.5036 116.09c-3.1329 1.807-4.6994 2.71-5.8278 2.519a3.178 3.178 0 0 1-2.2871-1.662c-.5304-1.013-.1552-2.782.5953-6.32l5.9771-28.1808c.2219-1.0463.3328-1.5691.2801-2.0696a3.1827 3.1827 0 0 0-.4083-1.2568c-.2516-.4357-.6487-.7938-1.4429-1.5093L12.9901 58.3249c-2.6866-2.4214-4.03-3.6317-4.197-4.7639a3.1804 3.1804 0 0 1 .8736-2.6887c.8006-.8178 2.599-1.0076 6.1957-1.3872l28.6485-3.0237c1.0633-.1122 1.5949-.1683 2.0546-.3731a3.1806 3.1806 0 0 0 1.069-.7767c.3368-.3739.5544-.8622.9898-1.8387l11.7284-26.312Z" stroke="#F6B17A" stroke-width="5" stroke-linecap="round" stroke-linejoin="round"/>
  <path d="M65.8779 87.0923c-.56 0-1.05-.21-1.47-.63-.42-.42-.63-.924-.63-1.512v-25.62l-3.066 1.302c-.476.196-.924.294-1.344.294-.616 0-1.134-.196-1.554-.588-.392-.392-.588-.896-.588-1.512 0-.448.112-.854.336-1.218.224-.364.574-.63 1.05-.798l6.552-2.352c.14-.056.28-.098.42-.126.14-.028.266-.042.378-.042.644 0 1.148.21 1.512.63.392.392.588.91.588 1.554v28.476c0 .588-.21 1.092-.63 1.512-.42.42-.938.63-1.554.63Z" fill="#F6B17A"/>
</svg>

<svg width="130" height="130" viewBox="0 0 130 130" fill="none" xmlns="http://www.w3.org/2000/svg">
<path d="M60.3527 17.1609C61.8251 13.8575 62.5617 12.2058 63.5869 11.6972C64.4774 11.2552 65.523 11.2552 66.4134 11.6972C67.4387 12.2058 68.1752 13.8575 69.6476 17.1609L81.376 43.4729C81.8117 44.4494 82.0292 44.9377 82.3663 45.3116C82.6639 45.6425 83.0284 45.9071 83.4348 46.0883C83.8946 46.2931 84.4264 46.3492 85.4898 46.4614L114.138 49.4851C117.735 49.8647 119.533 50.0545 120.334 50.8723C121.029 51.5827 121.352 52.5775 121.207 53.561C121.041 54.6932 119.697 55.9035 117.011 58.3249L95.6103 77.6105C94.8165 78.326 94.419 78.6841 94.1677 79.1198C93.9451 79.5058 93.8058 79.9339 93.7594 80.3766C93.7066 80.8771 93.8173 81.3999 94.0393 82.4462L100.017 110.627C100.767 114.165 101.142 115.934 100.612 116.947C100.151 117.829 99.3049 118.443 98.3248 118.609C97.1965 118.8 95.63 117.897 92.4969 116.09L67.5424 101.697C66.6163 101.163 66.1533 100.896 65.661 100.791C65.2253 100.699 64.775 100.699 64.3394 100.791C63.8471 100.896 63.384 101.163 62.458 101.697L37.5036 116.09C34.3707 117.897 32.8042 118.8 31.6758 118.609C30.6956 118.443 29.8495 117.829 29.3887 116.947C28.8583 115.934 29.2335 114.165 29.984 110.627L35.9611 82.4462C36.183 81.3999 36.2939 80.8771 36.2412 80.3766C36.1946 79.9339 36.0555 79.5058 35.8329 79.1198C35.5813 78.6841 35.1842 78.326 34.39 77.6105L12.9901 58.3249C10.3035 55.9035 8.96011 54.6932 8.79309 53.561C8.64807 52.5775 8.97124 51.5827 9.66667 50.8723C10.4673 50.0545 12.2657 49.8647 15.8624 49.4851L44.5109 46.4614C45.5742 46.3492 46.1058 46.2931 46.5655 46.0883C46.9723 45.9071 47.3364 45.6425 47.6345 45.3116C47.9713 44.9377 48.1889 44.4494 48.6243 43.4729L60.3527 17.1609Z" stroke="#F6B17A" stroke-width="5" stroke-linecap="round" stroke-linejoin="round"/>
<path d="M65.8779 87.0923C65.3179 87.0923 64.8279 86.8823 64.4079 86.4623C63.9879 86.0423 63.7779 85.5383 63.7779 84.9503V59.3303L60.7119 60.6323C60.2359 60.8283 59.7879 60.9263 59.3679 60.9263C58.7519 60.9263 58.2339 60.7303 57.8139 60.3383C57.4219 59.9463 57.2259 59.4423 57.2259 58.8263C57.2259 58.3783 57.3379 57.9723 57.5619 57.6083C57.7859 57.2443 58.1359 56.9783 58.6119 56.8103L65.1639 54.4583C65.3039 54.4023 65.4439 54.3603 65.5839 54.3323C65.7239 54.3043 65.8499 54.2903 65.9619 54.2903C66.6059 54.2903 67.1099 54.5003 67.4739 54.9203C67.8659 55.3123 68.0619 55.8303 68.0619 56.4743V84.9503C68.0619 85.5383 67.8519 86.0423 67.4319 86.4623C67.0119 86.8823 66.4939 87.0923 65.8779 87.0923Z" fill="#F6B17A"/>
</svg>
